X:1
T:Där borta
T:Ludvig Norman (1831-1885)
T:V I våren
T:©PA Aglert Edition may be freely distributed, duplicated, performed and recorded
T:©PA Aglert Edition may be freely distributed, duplicated, performed and recorded
T:©PA Aglert Edition may be freely distributed, duplicated, performed and recorded
T:©PA Aglert Edition may be freely distributed, duplicated, performed and recorded
T:©PA Aglert Edition may be freely distributed, duplicated, performed and recorded
T:©PA Aglert Edition may be freely distributed, duplicated, performed and recorded
T:©PA Aglert Edition may be freely distributed, duplicated, performed and recorded
T:©PA Aglert Edition may be freely distributed, duplicated, performed and recorded
T:©PA Aglert Edition may be freely distributed, duplicated, performed and recorded
T:©PA Aglert Edition may be freely distributed, duplicated, performed and recorded
T:©PA Aglert Edition may be freely distributed, duplicated, performed and recorded
T:©PA Aglert Edition may be freely distributed, duplicated, performed and recorded
T:©PA Aglert Edition may be freely distributed, duplicated, performed and recorded
C:Ludvig Norman (1831-1885)
Z:©PA Aglert
Z:Edition may be freely distributed, duplicated, performed and recorded
%%score [ 1 2 3 4 ]
L:1/8
Q:1/4=120
M:4/4
K:A
V:1 treble nm="S"
V:2 treble nm="A"
V:3 treble-8 nm="T"
V:4 bass nm="B"
V:1
"^Friskt och eldigt""^1"!f! E>F | A2 G>A c2 A>B | d2 c>d f2 e>c | A2 B>c e2 d>B | G6!p! GA | %5
w: Det är|sol- ljus i luft, det är|bloms- ter på mark, det är|strå- lan- de vår ö- ver|allt, och det|
 (cB)GE e2 dc | (cB)GE e2 ^dc | B2 cG B2 AB | G6 z2 | z4 z2!mf! EF | A2 G>F G2 z2 | z4 z2 cd | %12
w: sor- * lar och jub- lar i|dof- * tan- de park, där den|sis- ta av dri- vor- na|smalt.|Och i|lun- dar- nas topp|stäm- mas|
 f2 e>^d e2 Bc | !courtesy!=d2 cd f2 eA | d2 cd e2 AA |!>(! d2 =cc _B2 A!>)!A | (A2 G4)!pp! GG | %17
w: hym- ner- na opp, och upp-|stån- del- sens an- da står|väl- dig och stark, där det|nyss var så ö- de och|kallt. _ Nu drar|
 A2 _B=G =c2 B!<(!A | (A=G)!<)!A_B !>!d2 =cc |!<(!!>(! =c2!>)!!>(! _B>A A2 =G>!>)!=F!<)! | %20
w: lär- kan sitt strå bland den|vä- * xan- de råg, och hon|sjun- ger för den hon har|
 (=F2 E2) z2!p! EF | (=G=F)GA _B2 BB |!<(! _B2 =g!<)!=f e2!f! d=c | =f6 fe | d6 =cc | %25
w: kär, _ och det|kom- * mer av sva- nar ett|glän- san- de tåg och slår|ner, och slår|ner, u- ti|
!>(! _B4 A3!>)! A | e6!mf! E>!courtesy!^F | A2 G>!<(!A c2 A>B!<)! | d2 c>!<(!d f2 e>!<)!c | %29
w: vi- kar- na|här. Ty det|blå- nan- de hav har stått|upp ur sin grav, och det|
 A2 B>c e2 d>B | G2 B>A G2!p! GA | (cB)GE e2 dc | (cB)GE e2 dc | f2 ee (ed)ef | e2 BA G2!f! AB | %35
w: rul- lar i sol- sken sin|glitt- ran- de våg; Ty det|blå- * nan- de hav har stått|upp _ ur sin grav, och det|rul- lar i sol- * sken sin|glitt- ran- de våg mel- lan|
 c4 d3 e | f6!p! Bc | e2 dc c2 Bc |"^2" A4 !fermata!z2!p! E>F | A2 G>A c2 A>B | d2 c>d f2 e>c | %41
w: hol- mar och|skär, mel- lan|gröns- kan- de hol- mar och|skär. O, hur|rym- den av tju- san- de|dof- ter är full, hur det|
 A2 B>c e2 d>B | G6!p! GA | (cB)GE e2 dc | (cB)GE e2 ^dc | B2 cG B2 AB | G6 z2 | z4 z2!mf! EF | %48
w: su- sar i sko- gar- nas|bryn, och små|blå- * ög- da min- nen med|ving- * ar av gull gå för-|yng- ra- de fram för min|syn.|I vart|
 A2 G>F G2 z2 | z4 z2 cd | f2 e>^d e2 Bc | !courtesy!=d2 cd f2 eA | d2 cd e2 AA | %53
w: män- ni- sko- sinn|spe- lar|vår- luf- ten in, och de|tan- kar som krä- lat likt|mas- kar i mull, nu sig|
 d2!<(! =cc _B2 d>!<)!=f | =f6!pp! !courtesy!^GG | A2 _B=G =c2 BA |!<(! (A=G)A!<)!_B !>!d2 =cc | %57
w: svin- ga som lär- kor mot|skyn. Nu vårt|land, ej oss lys- ter att|län- * ka vår gång från din|
 !>!=c2 _B>!>(!A A2 =G>!>)!=F | (=F2 E2) z2!p! EF | (=G=F)GA _B2 BB |!<(! _B2 =g=f!<)! e2!f! d=c | %61
w: strand u- ti vå- rens mi-|nut, _ ty du|gäl- * dar oss rik- ligt för|vint- rar- nas tvång, när till|
!<(! =f6!<)! fe |!>(! d6!>)! =cc | _B4 A3 A | e6!mf! E>!courtesy!^F | A2 G>!<(!A c2!<)! A>B | %66
w: sist, när till|sist du i|blom- ning slår|ut. Och i|fri- het och ro här vi|
 d2!<(! c>d f2!<)! e>c | A2 B>c e2 d>B | G2 B>A G2!p! GA | (cB)GE e2 dc | (cB)GE e2 dc | %71
w: byg- ga och bo, och vi|vil- ja dig pri- sa med|bragd och med sång, och i|fri- * het och ro här vi|byg- * ga och bo och vi|
 f2 e!<(!e (ed)e!<)!f | e2 BA G2!f! AB | c2 B!<(!c d2 e>!<)!e | f4 d3 B |!<(! B2 A4 c2!<)! | %76
w: vil- ja dig pri- * sa med|bragd och med sång och med|kär- lek till da- gar- nas|slut, och med|kär- lek till|
 e4 G3 G | A6 z2 |] %78
w: da- gar- nas|slut.|
V:2
!f! E>F | E2 E>E A2 A>B | A2 A>A A2 A>G | F2 A>A A2 A>F | E2 FE E2!p! EE | E2 EE (EF)GA | %6
w: Det är|sol- ljus i luft, det är|bloms- ter på mark, det är|strå- lan- de vår ö- ver|allt, ö- ver allt, och det|sor- lar och jub- * lar i|
 E2 EE E2 EE | E2 E^E F2 C^D | E6 z2 | z4 z2!mf! EE | E2 E>E E2 z2 | z4 z2 AA | A2 A>A A2 AA | %13
w: dof- tan- de park, där den|sis- ta av dri- vor- na|smalt.|Och i|lun- dar- nas topp|stäm- mas|hym- ner- na opp, och upp-|
 A2 AA A2 AA | A2 AA A2 A=G |!>(! =F6 F!>)!F | =F2 FE E2!pp! FF | =F2 DE F2 F!<(!F | %18
w: stån- del- sens an- da står|väl- dig och stark, där det|nyss var så|ö- de och kallt. Nu drar|lär- kan sitt strå bland den|
 E2 E!<)!E !courtesy!^F2 FF |!<(!!>(! F2!>)!!>(! =G>F D2 D>!>)!D!<)! | =C4 z2!p! CD | %21
w: vä- xan- de råg, och hon|sjun- ger för den hon har|kär, och det|
 (ED)E=F =G2 GG |!<(! =G2 _B!<)!A G2!f! =FE | =F6 d=c | _B6 AA | =F4 ^F3 A | %26
w: kom- * mer av sva- nar ett|glän- san- de tåg och slår|ner, och slår|ner, u- ti|vi- kar- na|
 !courtesy!^G6!mf! E>E | E2 E>!<(!E A2 A>A!<)! | A2 A>A A2 A>A | A2 A>A A2 A>F | %30
w: här. Ty det|blå- nan- de hav har stått|upp ur sin grav, och det|rul- lar i sol- sken sin|
 ^E2 G>F E2!p! =EE | E2 EE (EF)GA | E2 EE E2 =GG | F2 FF F2 FF | B2 BB B2!f! FG | A4 A3 A | %36
w: glitt- ran- de våg; Ty det|blå- nan- de hav _ har stått|upp ur sin grav, och det|rul- lar i sol- sken sin|glitt- ran- de våg mel- lan|hol- mar och|
 A6!p! AA | F2 GA F2 GG | E4 !fermata!z2!p! E>F | E2 E>E A2 A>A | A2 A>A A2 A>G | F2 A>A A2 A>F | %42
w: skär, mel- lan|gröns- kan- de hol- mar och|skär. O, hur|rym- den av tju- san- de|dof- ter är full, hur det|su- sar i sko- gar- nas|
 E2 FE EE!p! EE | E2 EE (EF)GA | E2 EE E2 EE | E2 E^E F2 C^D | E6 z2 | z4 z2!mf! EE | %48
w: bryn, hur det su- sar, och små|blå- ög- da min- * nen med|ving- ar av gull gå för-|yng- ra- de fram för min|syn.|I vart|
 E2 E>E E2 z2 | z4 z2 AA | A2 A>A A2 AA | A2 AA A2 AA | A2 AA A2 A=G | =F6!<(! FF!<)! | %54
w: män- ni- sko- sinn|spe- lar|vår- luf- ten in, och de|tan- kar som krä- lat likt|mas- kar i mull, nu sig|svin- ga som|
 =F2 F=G F2!pp! FF | =F2 DE F2 FF | E2 EE !courtesy!^F2 FF | !>!F2 =G>!>(!F D2 D>!>)!D | %58
w: lär- kor mot skyn. Nu vårt|land, ej oss lys- ter att|län- ka vår gång från din|strand u- ti vå- rens mi-|
 =C4 z2!p! CD | (ED)E=F =G2 GG |!<(! =G2 _BA!<)! G2!f! =FE | =F6 d=c |!>(! _B6!>)! AA | =F4 ^F3 A | %64
w: nut, ty du|gäl- * dar oss rik- ligt för|vint- rar- nas tvång, när till|sist, när till|sist du i|blom- ning slår|
 !courtesy!^G6!mf! E>E | E2 E>!<(!E A2!<)! A>A | A2!<(! A>A A2 A>!<)!A | A2 A>A A2 A>F | %68
w: ut. Och i|fri- het och ro här vi|byg- ga och bo, och vi|vil- ja dig pri- sa med|
 ^E2 G>F E2!p! =EE | E2 EE (EF)GA | E2 EE E2 =GG | F2 F!<(!F F2 F!<)!F | B2 BB B2!f! FG | %73
w: bragd och med sång, och i|fri- het och ro _ här vi|byg- ga och bo och vi|vil- ja dig pri- sa med|bragd och med sång och med|
 (AE)A!<(!A A2 A>!<)!A | F4 A3 F | E4 D2 C2 | B,4 D3 D | C6 z2 |] %78
w: kär- * lek till da- gar- nas|slut, och med|kär- lek till|da- gar- nas|slut.|
V:3
!f! c>d | c2 B>c e2 c>d | f2 e>f d2 c>e | c2 f>e f2 f>d | B2 BG G2!p! BA | G2 BG A2 Bc | %6
w: Det är|sol- ljus i luft, det är|bloms- ter på mark, det är|strå- lan- de vår ö- ver|allt, ö- ver allt, och det|sor- lar och jub- lar i|
 G2 BG A2 AA | G2 Gc c2 FB | B6!mf! Bc | e2 d>c d4- | d6 z2 | z4 z2 ed | d2 c>^B c2 de | %13
w: dof- tan- de park, där den|sis- ta av dri- vor- na|smalt. Och i|lun- dar- nas topp|_|stäm- mas|hym- ner- na opp, och upp-|
 d2 ed (cd)Bc | d2 ed c2 cc |!>(! d6 =c!>)!c | B2 BB B2!pp! BB | =c2 d_B A2 d!<(!c | %18
w: stån- del- sens an- * da står|väl- dig och stark, där det|nyss var så|ö- de och kallt. Nu drar|lär- kan sitt strå bland den|
 _B2 =c!<)!=B (Ac)d_e |!<(!!>(! _e2!>)!!>(! d>=c c2!>)! _B>A!<)! | (A2 =G2) z4 | z4 z2!p! E=F | %22
w: vä- xan- de råg, _ och hon|sjun- ger för den hon har|kär, _|och det|
!<(! (=G=F)G!<)!A _B2!f! BB | (A=G)A_B =c2 de | =f6 ff | d4 =c3 c | (!courtesy!=B2 e4)!mf! G>A | %27
w: kom- * mer av sva- nar ett|glän- * san- de tåg och slår|ner, u- ti|vi- kar- na|här. _ Ty det|
 c2 B>A E2 c>d | f2 e>d c2 c>e | d2 f>e f2 f>d | c2 c>c c2!p! BA | G2 BG A2 Bc | G2 BG A2 AA | %33
w: blå- nan- de hav har stått|upp ur sin grav, och det|rul- lar i sol- sken sin|glitt- ran- de våg; Ty det|blå- nan- de hav har stått|upp ur sin grav, och det|
 A2 ^AA (cB)cd | d2 d^d e2!f! ee | e4 d3 c | d6!p! fe | d2 fe d2 dd | c4 !fermata!z2!p! c>d | %39
w: rul- lar i sol- * sken sin|glitt- ran- de våg mel- lan|hol- mar och|skär, mel- lan|gröns- kan- de hol- mar och|skär. O, hur|
 c2 B>c e2 c>d | f2 e>f d2 c>e | c2 f>e f2 f>d | B2 BG GG!p! BA | G2 BG A2 Bc | G2 BG A2 AA | %45
w: rym- den av tju- san- de|dof- ter är full, hur det|su- sar i sko- gar- nas|bryn, hur det su- sar, och små|blå- ög- da min- nen med|ving- ar av gull gå för-|
 G2 Gc c2 FB | B6!mf! Bc | e2 d>c d4- | d6 z2 | z4 z2 ed | d2 c>^B c2 !courtesy!=de | %51
w: yng- ra- de fram för min|syn. I vart|män- ni- sko- sinn|_|spe- lar|vår- luf- ten in, och de|
 d2 ed (cd)Bc | d2 ed c2 cc | d6!<(! =cc!<)! | =c2 _BA B2!pp! =BB | =c2 d_B A2 dc | %56
w: tan- kar som krä- * lat likt|mas- kar i mull, nu sig|svin- ga som|lär- kor mot skyn. Nu vårt|land, ej oss lys- ter att|
 _B2 =cB (Ac)d_e | !>!_e2 d>!>(!=c c2 _B>!>)!A | (A2 =G2) z4 | z4 z2!mf! E=F | (=G=F)GA _B2 BB | %61
w: län- ka vår gång _ från din|strand u- ti vå- rens mi-|nut, _|ty du|gäl- * dar oss rik- ligt för|
 (A=G)A_B =c2 de |!>(! =f6!>)! ff | d4 =c3 c | (!courtesy!=B2 e4)!mf! G>A | c2!<(! B>A E2!<)! c>d | %66
w: vint- * rar- nas tvång, när till|sist du i|blom- ning slår|ut. _ Och i|fri- het och ro här vi|
 f2!<(! e>d c2 c>!<)!e | d2 f>e f2 f>d | c2 c>c c2!p! BA | G2 BG A2 Bc | G2 BG A2 AA | %71
w: byg- ga och bo, och vi|vil- ja dig pri- sa med|bragd och med sång, och i|fri- het och ro här vi|byg- ga och bo och vi|
 A2 ^AA (cB)cd | d2 d^d e2!f! ee | e2 e!<(!A d2 c>!<)!c | A4 f3 d |!<(! c4 B2!<)! A2 | G4 B3 B | %77
w: vil- ja dig pri- * sa med|bragd och med sång och med|kär- lek till da- gar- nas|slut, och med|kär- lek till|da- gar- nas|
 A6 z2 |] %78
w: slut.|
V:4
!f! A,>A, | A,2 E,>A, A,2 A,>E, | A,2 A,>D, A,2 A,>E, | F,2 D,>C, B,,2 B,,>D, | E,6!p! D,D, | %5
w: Det är|sol- ljus i luft, det är|bloms- ter på mark, det är|strå- lan- de vår ö- ver|allt, och det|
 D,2 D,D, C,2 B,,A,, | D,2 D,D, C,2 B,,A,, | B,,6 B,,B,, | E,2 E,B,, E,2 z2 | z4 z2!mf! G,A, | %10
w: sor- lar och jub- lar i|dof- tan- de park, där den|sis- ta av|dri- vor- na smalt.|Och i|
 C2 B,>A, B,2 E,F, | A,2 =G,>F, G,4- | G,6 =G,G, | F,2 =G,F, G,2 G,G, | F,2 =G,G, G,2 =F,E, | %15
w: lun- dar- nas topp stäm- mas|hym- ner- na opp,|_ och upp-|stån- del- sens an- da står|väl- dig och stark, där det|
 D,2!>(! D,D, D,2 D,!>)!D, | D,6!pp! _D,D, | =C,2 C,C, C,2 C,!<(!C, | =C,2 C,!<)!C, C,2 A,,A,, | %19
w: nyss var så ö- de och|kallt. Nu drar|lär- kan sitt strå bland den|vä- xan- de råg, och hon|
!<(!!>(! =G,,2!>)!!>(! G,,>A,, _B,,2!>)! B,,>=B,,!<)! | =C,4 z4 | z4 z2!p! =C,D, | %22
w: sjun- ger för den hon har|kär,|och det|
!<(! (E,D,)E,!<)!=F, =G,2!f! G,G, | (=F,=C,)F,=G, A,2 _B,=C | D6 D,D, | D,4 ^D,3 D, | %26
w: kom- * mer av sva- nar ett|glän- * san- de tåg och slår|ner, u- ti|vi- kar- na|
 E,6!mf! E,>^D, | !courtesy!=D,2 D,>!<(!C, A,,2 A,>!<)!G, | =G,2 G,>F, G,2 G,>G, | %29
w: här. Ty det|blå- nan- de hav har stått|upp ur sin grav, och det|
 F,2 D,>C, B,,2 B,,>B,, | C,2 C,>F, C,2!p! D,D, | D,2 D,D, C,2 B,,A,, | D,2 D,D, C,2 E,E, | %33
w: rul- lar i sol- sken sin|glitt- ran- de våg; Ty det|blå- nan- de hav har stått|upp ur sin grav, och det|
 D,2 C,C, B,,2 B,!courtesy!=A, | G,2 G,F, E,2!f! E,E, | A,4 F,3 E, | D,6!p! D,C, | %37
w: rul- lar i sol- sken sin|glitt- ran- de våg mel- lan|hol- mar och|skär, mel- lan|
 B,,2 B,,C, D,2 E,E, | A,,4 !fermata!z2!p! A,>A, | A,2 E,>A, A,2 A,>E, | A,2 A,>D, A,2 A,>E, | %41
w: gröns- kan- de hol- mar och|skär. O, hur|rym- den av tju- san- de|dof- ter är full, hur det|
 F,2 D,>C, B,,2 B,,>D, | E,6!p! D,D, | D,2 D,D, C,2 B,,A,, | D,2 D,D, C,2 B,,A,, | B,,6 B,,B,, | %46
w: su- sar i sko- gar- nas|bryn, och små|blå- ög- da min- nen med|ving- ar av gull gå för-|yng- ra- de|
 E,2 E,B,, E,2 z2 | z4 z2!mf! G,A, | C2 B,>A, B,2 E,F, | A,2 =G,>F, G,4- | G,6 =G,G, | %51
w: fram för min syn.|I vart|män- ni- sko- sinn spe- lar|vår- luf- ten in,|_ och de|
 F,2 =G,F, G,2 G,G, | F,2 =G,G, G,2 =F,E, | D,2 D,D, D,2 D,D, | D,6!pp! _D,D, | %55
w: tan- kar som krä- lat likt|mas- kar i mull, nu sig|svin- ga som lär- kor mot|skyn. Nu vårt|
 =C,2 C,C, C,2 C,C, | =C,2 C,C, C,2 A,,A,, | !>!=G,,2!>(! G,,>A,, _B,,2 B,,>!>)!=B,, | =C,4 z4 | %59
w: land, ej oss lys- ter att|län- ka vår gång från din|strand u- ti vå- rens mi-|nut,|
 z4 z2!mf! =C,D, | (E,D,)E,=F, =G,2 G,G, | (=F,=C,)F,=G, A,2 _B,=C |!>(! D6 D,!>)!D, | %63
w: ty du|gäl- * dar oss rik- ligt för|vint- * rar- nas tvång, när till|sist du i|
 D,4 ^D,3 D, | E,6!mf! E,>^D, | !courtesy!=D,2!<(! D,>C, A,,2!<)! A,>G, | %66
w: blom- ning slår|ut. Och i|fri- het och ro här vi|
 =G,2!<(! G,>F, G,2 G,>!<)!G, | F,2 D,>C, B,,2 B,,>B,, | C,2 C,>F, C,2!p! D,D, | %69
w: byg- ga och bo, och vi|vil- ja dig pri- sa med|bragd och med sång, och i|
 D,2 D,D, C,2 B,,A,, | D,2 D,D, C,2 E,E, | D,2 C,C, B,,2 B,!courtesy!=A, | G,2 G,F, E,2!f! E,E, | %73
w: fri- het och ro här vi|byg- ga och bo och vi|vil- ja dig pri- sa med|bragd och med sång och med|
 A,2 A,!<(!=G, F,2 E,>!<)!E, | D,4 D,3 D, |!<(! E,4 E,2!<)! E,2 | E,,4 E,3 E, | A,,6 z2 |] %78
w: kär- lek till da- gar- nas|slut, och med|kär- lek till|da- gar- nas|slut.|

